X: 23876
T: Lliw Lili Ymysg Y Drain
R: waltz
M: 3/4
K: Eminor
B2 e2 E2|G3 A BA|B2 g2 fe|d3 c BA|
B2 e2 E2|G3 A BA|B2 g2 f2|e4:|
g3 a b2|f3 g a2|g3 f ed|B4 A2|
G3 A B2|G3 A B2|B2 g2 f2|e4:|

